!!!COM: Beethoven
!!!OTL: 7 Variations on a Quartet by Winter
!!!Variation: Variation 5 b
**function	**harm	**kern	**kern
*	*	*clefF4	*clefG2
*	*	*k[b-]	*k[b-]
*M2/4	*M2/4	*M2/4	*M2/4
*F:	*F:	*F:	*F:
4T	4I	(8CL	(8.ffL 8.aa
.	.	16FJk)	.
.	.	16r	16eeJk) 16gg
=254	=254	=254	=254
2T	2I	(8FL	(8.ddL 8.ff
.	.	16AJk)	.
.	.	16r	16ccJk) 16ee
.	.	(8AL	16b-'LL 16dd'
.	.	.	16a' 16cc'
.	.	16cJk)	16g' 16b-'
.	.	16r	16f'JJ 16a'
=255	=255	=255	=255
4T	4V7d	(4B-	16r
.	.	.	16e'LK 16g'
.	.	.	8ccJ
4T	4Ib	4A)	16r
.	.	.	16f'LK 16a'
.	.	.	8ccJ
=256	=256	=256	=256
*	*	*	*^
8T	8V7c	8GL	8r	(16b-LL
.	.	.	.	16cc
8T	8I	8FJ	8b-	16dd-
.	.	.	.	16ccJJ)
8T	8viioD7	8EL	8b-L	(16dd-LL
.	.	.	.	16cc
8T	8I	8FJ	8b-J	16dd-
.	.	.	.	16ccJJ)
=257	=257	=257	=257	=257
4T	4V7	8GL	8b-	8cc
*	*	*	*v	*v
.	.	8CJ	8r
4T	4I	(8CCL	(8.aaL 8.ccc 8.fff
.	.	16FFJk)	.
.	.	16r	16ggJk) 16bb- 16eee
=258	=258	=258	=258
2T	2I	(8FFL	(8.ffL 8.aa 8.ddd
.	.	16AAJk)	.
.	.	16r	16eeJk) 16gg 16ccc
.	.	(8AAL	16dd'LL 16ff' 16bb-'
.	.	.	16cc' 16ee' 16aa'
.	.	16CJk)	16b-' 16dd' 16gg'
.	.	16r	16a'JJ 16cc' 16ff'
=259	=259	=259	=259
4T	4V7d	(4BB-	16r
.	.	.	16g'LK 16cc' 16ee'
.	.	.	8eeJ 8gg 8ccc
4T	4Ib	4AA)	16r
.	.	.	16a'LK 16cc' 16ff'
.	.	.	8ffJ 8aa 8ccc
=260	=260	=260	=260
4D	4Cc/V	8GG'L	16r
.	.	.	16cc 16ee 16gg
.	.	8GG'J	16r
.	.	.	16cc 16ee 16gg
4D	4V7b/V	8AA'L	16r
.	.	.	16dd 16ff 16gg
.	.	8BB'J	16r
.	.	.	16dd 16ff 16gg
=261	=261	=261	=261
2D	2V	(4C	(16ccLL 16gg
.	.	.	16ee 16ff#
.	.	.	16cc 16gg
.	.	.	16eeJJ 16ff#
.	.	8DL	16ccLL 16gg
.	.	.	16ee 16ff#
.	.	8EJ)	16cc 16gg
.	.	.	16eeJJ) 16ff#
=262	=262	=262	=262
4D	4Cc/V	(8GGL 8C	(16ccLL 16aa
.	.	.	16ee) 16gg
.	.	16GJk)	16ee' 16gg'
.	.	16r	16ee'JJ 16gg'
4D	4V7/V	(8GGL 8BB	(16ddLL 16aa
.	.	.	16ff) 16gg
.	.	16GJk)	16ff' 16gg'
.	.	16r	16ff'JJ 16gg'
=263	=263	=263	=263
2D	2V	(4C	(16ccLL 16gg
.	.	.	16ee 16ff#
.	.	.	16cc 16gg
.	.	.	16eeJJ 16ff#
.	.	8DL	16ccLL 16gg
.	.	.	16ee 16ff#
.	.	8EJ)	16cc 16gg
.	.	.	16eeJJ) 16ff#
=264	=264	=264	=264
4D	4Cc/V	(8GGL 8C	(16ccLL 16aa
.	.	.	16ee) 16gg
.	.	16GJk)	16ee' 16gg'
.	.	16r	16ee'JJ 16gg'
4D	4V7/V	(8GGL 8BB	(16ddLL 16aa
.	.	.	16ff) 16gg
.	.	16GJk)	16ff' 16gg'
.	.	16r	16ff'JJ 16gg'
=265	=265	=265	=265
4D	4V	4C;	8ee; [8gg;
.	.	.	q32gg]
.	.	.	q32ee
.	.	.	q32ff
.	.	.	q32dd
.	.	.	8cc;
*-	*-	*-	*-
